outputs/icons/communication/lightbulb_round.svg

<svg xmlns="http://www.w3.org/2000/svg" width="1200" height="1200" fill="none"><path fill="#000" d="M450 1050c0 25 20 50 50 50h200c30 0 50-25 50-50v-50H450zm150-950c-195 0-350 155-350 350 0 120 60 225 150 285v115c0 25 20 50 50 50h300c30 0 50-25 50-50V735c90-65 150-170 150-285 0-195-155-350-350-350"/></svg>

<svg width="1200" height="1200" viewBox="0 0 1200 1200" fill="none" xmlns="http://www.w3.org/2000/svg"><path d="M450 1050C450 1075 470 1100 500 1100H700C730 1100 750 1075 750 1050V1000H450V1050ZM600 100C405 100 250 255 250 450C250 570 310 675 400 735V850C400 875 420 900 450 900H750C780 900 800 875 800 850V735C890 670 950 565 950 450C950 255 795 100 600 100Z" fill="black"/></svg>
